X:751
T:Hoppseravals
C:Otto Bernhard Harberg
R:Polka
Z:Patrik Månsson, 2/10 2008
O:Emmislöv, Skåne
M:2/4
L:1/8
K:C
N:Nedtecknad på noter av StN 19/9-99.

|: G | Ge cG | ce g2 | fedg | e2 cB |
BecB | ce g2 | fedg | c :: e1/2g1/2 |
fd df1/2f1/2 | dc cc1/2d1/2 | dGAB | ceg e1/2g1/2 |
fd dd1/2f1/2 | ec cc1/2e1/2 | dGAB | c2 :: c'2 |
afca | gecg | fGAB | cegc' |
afca | gecg | fGAB | c2 :|



(:musicend:)



(:music:)
